X:1
T:Belvidere -- Hornpipe
Z:Bob Puckette <bpuckette:msn.com> 2003-3-10
R:hornpipe
B:Cole's 1000 Fiddle Tunes
M:2/4
L:1/16
K:G
vdc|Bcde dcBc|dBgB bBgd|Bcde dcBc|Aaag fedc|
Bcde dcBc|dBgB bBgd|cBAG FDEF|G2B2G2:|
|:BcBA .G2(BG)|DGBG DGBd|BcBA .G2(BG)|FGAB cedc|
BcBA .G2(BG)|DGBG DGBd|cBAG FDEF|G2B2G2z2:|
